source/img/icon-eat.svg

<svg width="23" height="30" viewBox="0 0 23 30" fill="none" xmlns="http://www.w3.org/2000/svg">
<mask id="path-1-inside-1" fill="white">
<path d="M18.1875 30C17.7382 30 17.375 29.7206 17.375 29.375V0.625C17.375 0.279375 17.7382 0 18.1875 0C18.6368 0 19 0.279375 19 0.625V29.375C19 29.7206 18.6368 30 18.1875 30Z"/>
</mask>
<path d="M18.1875 28C18.3646 28 18.5996 28.0529 18.8322 28.2319C19.0676 28.413 19.375 28.8004 19.375 29.375H15.375C15.375 31.2813 17.1531 32 18.1875 32V28ZM19.375 29.375V0.625H15.375V29.375H19.375ZM19.375 0.625C19.375 1.19964 19.0676 1.58705 18.8322 1.76814C18.5996 1.94708 18.3646 2 18.1875 2V-2C17.1531 -2 15.375 -1.28129 15.375 0.625H19.375ZM18.1875 2C18.0104 2 17.7754 1.94708 17.5428 1.76814C17.3074 1.58705 17 1.19964 17 0.625H21C21 -1.28129 19.2219 -2 18.1875 -2V2ZM17 0.625V29.375H21V0.625H17ZM17 29.375C17 28.8004 17.3074 28.413 17.5428 28.2319C17.7754 28.0529 18.0104 28 18.1875 28V32C19.2219 32 21 31.2813 21 29.375H17Z" fill="white" mask="url(#path-1-inside-1)"/>
<path d="M19.2219 2.15186C19.5659 2.75477 19.8948 3.54925 20.1983 4.50526C20.0668 4.25932 19.9342 4.03815 19.802 3.84116C19.5817 3.51303 19.3494 3.23298 19.1074 3.01542C18.9809 2.90164 18.8314 2.78662 18.661 2.69333C18.6158 2.5255 18.5697 2.29743 18.5271 2.03278C18.4776 1.72547 18.4383 1.4042 18.4111 1.13642C18.6166 1.28286 18.8939 1.57697 19.2219 2.15186Z" stroke="white" stroke-width="2"/>
<mask id="path-4-inside-2" fill="white">
<path d="M6 11.25C3.24357 11.25 1 9.28687 1 6.875V0.625C1 0.279375 1.31929 0 1.71429 0C2.10929 0 2.5967 0.279375 2.5967 0.625V6.875C2.5967 8.59813 4.03071 9.5 6 9.5C7.96929 9.5 9.5 8.5 9.5 7V0.625C9.5 0.279375 9.89071 0 10.2857 0C10.6807 0 11 0.279375 11 0.625V6.875C11 9.28687 8.75643 11.25 6 11.25Z"/>
</mask>
<path d="M6 9.25C4.08893 9.25 3 7.9398 3 6.875H-1C-1 10.634 2.39821 13.25 6 13.25V9.25ZM3 6.875V0.625H-1V6.875H3ZM3 0.625C3 1.62645 2.16464 2 1.71429 2V-2C0.473928 -2 -1 -1.0677 -1 0.625H3ZM1.71429 2C1.49071 2 1.3321 1.93805 1.20169 1.85195C1.12615 1.80208 0.596699 1.42888 0.596699 0.625H4.5967C4.5967 -0.524503 3.82354 -1.2102 3.40555 -1.48617C2.93268 -1.79836 2.33287 -2 1.71429 -2V2ZM0.596699 0.625V6.875H4.5967V0.625H0.596699ZM0.596699 6.875C0.596699 8.36834 1.25474 9.62815 2.3816 10.4497C3.43374 11.2169 4.74397 11.5 6 11.5V7.5C5.28674 7.5 4.89533 7.33221 4.73814 7.2176C4.67052 7.1683 4.64747 7.13164 4.63649 7.10992C4.62554 7.08825 4.5967 7.0222 4.5967 6.875H0.596699ZM6 11.5C7.29875 11.5 8.59677 11.1736 9.63069 10.4543C10.6995 9.71069 11.5 8.51505 11.5 7H7.5C7.5 7.02247 7.4974 7.02446 7.49398 7.03044C7.48644 7.04362 7.45125 7.09771 7.34627 7.17075C7.12252 7.32642 6.67054 7.5 6 7.5V11.5ZM11.5 7V0.625H7.5V7H11.5ZM11.5 0.625C11.5 1.24609 11.1537 1.62243 10.9637 1.76851C10.7668 1.91988 10.5361 2 10.2857 2V-2C9.64035 -2 9.0168 -1.78019 8.52579 -1.40273C8.04167 -1.03056 7.5 -0.341716 7.5 0.625H11.5ZM10.2857 2C9.83536 2 9 1.62645 9 0.625H13C13 -1.0677 11.5261 -2 10.2857 -2V2ZM9 0.625V6.875H13V0.625H9ZM9 6.875C9 7.9398 7.91107 9.25 6 9.25V13.25C9.60179 13.25 13 10.634 13 6.875H9Z" fill="white" mask="url(#path-4-inside-2)"/>
<mask id="path-6-inside-3" fill="white">
<path d="M6 30C5.447 30 5 29.7206 5 29.375V0.625C5 0.279375 5.447 0 6 0C6.553 0 7 0.279375 7 0.625V29.375C7 29.7206 6.553 30 6 30Z"/>
</mask>
<path d="M6 24C6.66507 24 7.55582 24.1561 8.47262 24.7291C9.30837 25.2515 11 26.7375 11 29.375H-1C-1 32.3581 0.915128 34.1567 2.11263 34.9051C3.39118 35.7042 4.78193 36 6 36V24ZM11 29.375V0.625H-1V29.375H11ZM11 0.625C11 3.2625 9.30837 4.74853 8.47262 5.27088C7.55582 5.84388 6.66507 6 6 6V-6C4.78193 -6 3.39118 -5.70419 2.11263 -4.9051C0.915128 -4.15666 -1 -2.35813 -1 0.625H11ZM6 6C5.33493 6 4.44418 5.84388 3.52738 5.27088C2.69163 4.74853 1 3.2625 1 0.625H13C13 -2.35813 11.0849 -4.15666 9.88737 -4.9051C8.60882 -5.70419 7.21807 -6 6 -6V6ZM1 0.625V29.375H13V0.625H1ZM1 29.375C1 26.7375 2.69163 25.2515 3.52738 24.7291C4.44418 24.1561 5.33493 24 6 24V36C7.21807 36 8.60882 35.7042 9.88737 34.9051C11.0849 34.1567 13 32.3581 13 29.375H1Z" fill="white" mask="url(#path-6-inside-3)"/>
</svg>

<svg width="23" height="30" fill="none" xmlns="http://www.w3.org/2000/svg"><mask id="a" fill="#fff"><path d="M18.188 30c-.45 0-.813-.28-.813-.625V.625c0-.346.363-.625.813-.625.449 0 .812.28.812.625v28.75c0 .346-.363.625-.813.625z"/></mask><path d="M18.188 28c.177 0 .412.053.644.232.236.181.543.568.543 1.143h-4c0 1.906 1.778 2.625 2.813 2.625v-4zm1.187 1.375V.625h-4v28.75h4zm0-28.75c0 .575-.307.962-.543 1.143a1.059 1.059 0 01-.645.232v-4c-1.034 0-2.812.719-2.812 2.625h4zM18.187 2c-.177 0-.412-.053-.644-.232A1.442 1.442 0 0117 .625h4C21-1.281 19.222-2 18.187-2v4zM17 .625v28.75h4V.625h-4zm0 28.75c0-.575.307-.962.543-1.143a1.05 1.05 0 01.645-.232v4C19.221 32 21 31.281 21 29.375h-4z" fill="#fff" mask="url(#a)"/><path d="M19.222 2.152c.344.603.673 1.397.976 2.353a7.754 7.754 0 00-.396-.664 4.427 4.427 0 00-.695-.826 2.393 2.393 0 00-.446-.322 6.879 6.879 0 01-.134-.66c-.05-.308-.089-.629-.116-.897.206.147.483.441.81 1.016z" stroke="#fff" stroke-width="2"/><mask id="b" fill="#fff"><path d="M6 11.25c-2.756 0-5-1.963-5-4.375V.625C1 .279 1.32 0 1.714 0c.395 0 .883.28.883.625v6.25C2.597 8.598 4.03 9.5 6 9.5s3.5-1 3.5-2.5V.625c0-.346.39-.625.786-.625.395 0 .714.28.714.625v6.25c0 2.412-2.244 4.375-5 4.375z"/></mask><path d="M6 9.25c-1.911 0-3-1.31-3-2.375h-4c0 3.759 3.398 6.375 7 6.375v-4zM3 6.875V.625h-4v6.25h4zm0-6.25A1.332 1.332 0 011.714 2v-4C.474-2-1-1.068-1 .625h4zM1.714 2a.887.887 0 01-.512-.148C1.126 1.802.597 1.429.597.625h4c0-1.15-.773-1.835-1.191-2.111A3.116 3.116 0 001.714-2v4zM.597.625v6.25h4V.625h-4zm0 6.25c0 1.493.658 2.753 1.785 3.575C3.434 11.217 4.744 11.5 6 11.5v-4c-.713 0-1.105-.168-1.262-.282a.304.304 0 01-.102-.108.516.516 0 01-.04-.235h-4zM6 11.5c1.299 0 2.597-.326 3.63-1.046C10.7 9.711 11.5 8.515 11.5 7h-4c0 .022-.003.024-.006.03a.49.49 0 01-.148.14c-.223.156-.675.33-1.346.33v4zM11.5 7V.625h-4V7h4zm0-6.375c0 .621-.346.997-.536 1.144a1.096 1.096 0 01-.678.231v-4c-.646 0-1.27.22-1.76.597C8.042-1.03 7.5-.342 7.5.625h4zM10.286 2C9.836 2 9 1.626 9 .625h4C13-1.068 11.526-2 10.286-2v4zM9 .625v6.25h4V.625H9zm0 6.25C9 7.94 7.911 9.25 6 9.25v4c3.602 0 7-2.616 7-6.375H9z" fill="#fff" mask="url(#b)"/><mask id="c" fill="#fff"><path d="M6 30c-.553 0-1-.28-1-.625V.625C5 .279 5.447 0 6 0c.553 0 1 .28 1 .625v28.75c0 .346-.447.625-1 .625z"/></mask><path d="M6 24c.665 0 1.556.156 2.473.73.835.521 2.527 2.008 2.527 4.645H-1c0 2.983 1.915 4.782 3.113 5.53A7.345 7.345 0 006 36V24zm5 5.375V.625H-1v28.75h12zm0-28.75c0 2.638-1.692 4.124-2.527 4.646A4.659 4.659 0 016 6V-6a7.345 7.345 0 00-3.887 1.095C.915-4.157-1-2.358-1 .625h12zM6 6a4.659 4.659 0 01-2.473-.73C2.692 4.75 1 3.264 1 .626h12c0-2.983-1.915-4.782-3.113-5.53A7.345 7.345 0 006-6V6zM1 .625v28.75h12V.625H1zm0 28.75c0-2.637 1.692-4.123 2.527-4.646A4.659 4.659 0 016 24v12a7.345 7.345 0 003.887-1.095c1.198-.748 3.113-2.547 3.113-5.53H1z" fill="#fff" mask="url(#c)"/></svg>
